icons/rss-fill.svg

<svg xmlns="http://www.w3.org/2000/svg" width="24" height="24" fill="none"><g clip-path="url(#a)"><g><path fill="#121212" d="M3 3C12.941 3 21 11.059 21 21H18C18 12.716 11.284 6 3 6V3ZM3 10C9.075 10 14 14.925 14 21H11C11 18.8783 10.1571 16.8434 8.65685 15.3431C7.15656 13.8429 5.12173 13 3 13V10ZM3 17C4.06087 17 5.07828 17.4214 5.82843 18.1716C6.57857 18.9217 7 19.9391 7 21H3V17Z"/></g></g><defs><clipPath id="a"><rect width="24" height="24" fill="white"/></clipPath></defs></svg>

<svg width="24" height="24" fill="none" xmlns="http://www.w3.org/2000/svg"><g clip-path="url(#a)"><path d="M3 3c9.941 0 18 8.059 18 18h-3c0-8.284-6.716-15-15-15V3Zm0 7c6.075 0 11 4.925 11 11h-3a8 8 0 0 0-8-8v-3Zm0 7a4 4 0 0 1 4 4H3v-4Z" /></g><defs><clipPath id="a"><path fill="#fff" d="M0 0h24v24H0z"/></clipPath></defs></svg>
